!!!OTL: Graf und Nonne (Die Nonne) Ich stand auf hohem Berge,
!!!ARE: Europa, Mitteleuropa, Deutschland / UdSSR, Kurisches Haff, Karkeln
!!!YOR: 8, S. 292
!!    1830 aufgezeichnet
!!!SCT: Q0155R.
!!!YEM: Copyright 1995, estate of Helmut Schaffrath.
**kern
*ICvox
*Ivox
*M2/4
*k[f#]
*G:
{8b
8cc
=1
4.dd
8ee
=2
8dd
8cc
8b
8a
=3
2b
=4
2a}
=5
{4b
8b
8b
=6
4cc#
4cc#
=7
4dd}
{8b
8cc
=8
4.dd
8ee
=9
8dd
8cc
8b
8a
=10
2b
=11
2a}
=12
{4b
8b
8b
=13
4cc#
4cc#
=14
4dd}
{4dd
=15
4gg
4gg
=16
4ff#
4ff#
=17
2ee
=18
4.dd
8dd
=19
2cc
=20
4b}
{4dd
=21
4ee
8dd
8cc
=22
4b
4a
=23
2g
=24
4r}
{4dd
=25
4gg
4gg
=26
4ff#
4ff#
=27
2ee
=28
4.dd
8dd
=29
2cc
=30
4b}
{4dd
=31
4ee
8dd
8cc
=32
4b
4a
=33
2g
=34
4r}
==
!!!AGN: Ballade, Standesunterschied, vergebliche Werbung, Liebe, Klage
!! Anhaengsel an der fuenften und siebten Zeile. Verzierung (Vorschlag)
!!    Taktstrich in der ersten und dritten Zeile eingefuegt.
!!    Schlusspause ergaenzt.
!!!ONB: ESAC (Essen Associative Code) Database: BALLADE
!!!AMT: simple duple
!!!AIN: vox
!!!EED: Helmut Schaffrath
!!!EEV: 1.0
*-
